frontend/public/svg/interface/cookie.svg

<svg width="159" height="156" viewBox="0 0 159 156" fill="none" xmlns="http://www.w3.org/2000/svg">
<g clip-path="url(#clip0)">
<path d="M151.667 72.7118C150.186 72.6663 148.722 73.4099 147.309 74.9563C142.202 80.5411 135.352 82.9058 126.373 82.1836C118.732 81.5694 113.298 78.7516 109.766 73.5685C108.809 72.1483 108.164 70.5389 107.874 68.8495C107.584 67.1595 107.655 65.4266 108.083 63.7667C108.375 62.4926 108.941 61.2978 109.74 60.2656C110.54 59.2335 111.554 58.3891 112.712 57.7907C112.842 57.7272 112.947 57.6232 113.013 57.4942C113.079 57.3653 113.101 57.2184 113.077 57.0756C112.207 52.0557 111.013 51.0306 106.336 51.2523C105.976 51.2698 105.616 51.3173 105.258 51.3608C104.954 51.3985 104.65 51.4375 104.346 51.4557C97.5958 51.86 88.7867 51.8808 80.4781 48.4085C71.9092 44.8277 67.8128 38.6941 67.954 29.6591C67.9818 27.1485 68.2641 24.6474 68.7958 22.1939C70.2171 16.1166 72.9277 10.4185 76.7437 5.48883L76.8253 5.37902C77.7584 4.13167 78.4441 3.11128 78.0932 2.27343C77.7778 1.70534 77.3304 1.2227 76.7877 0.867421C76.2451 0.512143 75.6247 0.294789 74.9804 0.234242C74.5738 0.222542 74.1639 0.20701 73.7533 0.19076C71.2279 0.0952101 68.6203 -0.00423717 66.2076 0.664615C39.5623 8.07139 21.5334 22.5254 11.0898 44.8516C2.27099 63.7055 -0.595437 79.8384 2.06855 95.6243C6.21799 120.209 19.324 137.415 41.0225 146.767C54.7614 152.688 68.5232 155.662 82.1105 155.662C87.2993 155.662 92.4789 155.227 97.5952 154.358C117.748 150.94 133.606 141.657 144.728 126.765C153.629 114.845 158.033 100.04 158.189 81.5044C158.209 79.2144 156.894 76.7139 155.664 75.1344C154.445 73.5796 153.102 72.7671 151.667 72.7118ZM78.3658 56.8668C84.057 59.0768 90.4042 60.2418 97.77 60.4323C98.8125 60.4583 99.8551 60.4524 100.957 60.4453L101.782 60.4399C101.774 60.4769 101.767 60.5139 101.759 60.5497C101.659 61.0469 101.581 61.4403 101.475 61.8173C98.8656 71.0914 101.589 79.191 109.141 84.6237C119.451 92.0396 131.352 93.322 144.511 88.4347C145.136 88.2026 145.735 87.9257 146.428 87.604C146.501 87.5702 146.576 87.539 146.651 87.5C146.558 92.9021 145.695 98.2627 144.085 103.418C137.757 124.495 122.627 138.037 99.1149 143.669C80.8899 148.033 61.913 145.956 42.7141 137.494C25.439 129.882 14.7071 115.756 10.8173 95.5086C9.18096 86.9416 9.41349 78.1205 11.4987 69.6523C16.4789 49.0885 23.8983 35.4443 35.5567 25.4116C45.6978 16.6847 56.1393 10.7682 67.4767 7.32519C67.5674 7.29789 67.6581 7.27371 67.7604 7.24901C63.5874 13.1886 61.0233 20.1145 60.3188 27.3479C58.9363 41.1214 65.5145 51.8813 78.3625 56.8668H78.3658Z" fill="black"/>
<path d="M89.7106 131.093H89.8252C96.6419 131.093 102.049 125.035 102.156 117.247C102.225 112.137 96.2553 106.059 90.9487 105.838C87.9014 105.698 84.5581 107.155 81.7853 109.803C78.8623 112.591 77.0984 116.25 77.0661 119.59C77.0039 125.97 82.5611 131.021 89.7106 131.093ZM85.9387 118.542C86.0067 116.222 88.8986 113.061 90.4941 113.061H90.5C91.312 113.205 92.0405 113.648 92.5442 114.303C93.3485 115.092 93.8309 116.152 93.8976 117.278C93.6697 119.987 91.8436 121.938 89.6517 121.828C87.3063 121.706 85.883 120.445 85.9387 118.542Z" fill="black"/>
<path d="M53.2818 83.6222C53.2591 86.9249 54.2529 89.6854 56.1606 91.6055C58.1 93.5607 60.9258 94.5923 64.3371 94.5923H64.3845C67.9313 94.5825 70.9359 93.4268 73.0754 91.25C75.4383 88.845 76.6634 85.3083 76.6168 81.0196C76.552 74.7673 71.2351 70.7704 63.0919 70.8478C57.2751 70.9004 53.3323 76.0335 53.2818 83.6222ZM60.8158 83.6125C60.7827 81.3069 61.3339 79.3147 62.2547 78.4125C62.3899 78.2649 62.5532 78.1466 62.7347 78.0634C62.9161 77.9809 63.1121 77.9354 63.3114 77.9295H63.3613C66.317 78.0433 68.7621 79.9361 68.8133 82.15C68.8852 85.2557 67.2689 87.2401 64.5944 87.3272C63.2462 87.3747 62.3039 87.1231 61.7263 86.5693C61.1345 86.0025 60.8358 85.0353 60.8158 83.6125Z" fill="black"/>
<path d="M36.2059 92.4684C34.6864 92.443 33.1773 92.7225 31.7666 93.29C30.356 93.8574 29.0722 94.7011 27.9905 95.7723C27.1225 96.6076 26.4297 97.6079 25.9527 98.7162C25.4757 99.8238 25.2243 101.016 25.2131 102.223C25.241 107.033 28.1103 109.902 32.8872 109.902H32.8926C39.0591 109.902 43.5484 105.875 43.5685 100.336C43.5833 95.9595 40.3488 92.5041 36.2059 92.4684ZM30.4934 101.676C30.5199 101.26 30.7086 100.872 31.0186 100.594C31.7529 99.8595 33.4144 99.0899 35.9036 99.0711C35.9742 99.1361 36.0518 99.2102 36.1347 99.2856C36.5323 99.6489 37.1332 100.196 37.2012 100.677C37.2304 100.95 37.199 101.227 37.1095 101.487C37.0199 101.748 36.8746 101.985 36.6833 102.183C36.152 102.716 35.5202 103.139 34.8248 103.425C34.1293 103.711 33.3838 103.856 32.6321 103.851C32.054 103.904 31.4775 103.735 31.0192 103.377C30.627 102.902 30.4379 102.291 30.4934 101.676Z" fill="black"/>
<path d="M45.2752 37.0415C42.9654 35.5705 39.9235 35.5571 36.928 37.0059C33.8949 38.4736 32.8653 41.136 31.8707 43.7106C31.736 44.059 31.6021 44.4075 31.4622 44.7507C31.0922 45.6074 30.8984 46.5303 30.8931 47.464C30.8877 48.3978 31.0707 49.323 31.4309 50.184C31.8514 51.1142 32.4522 51.951 33.1983 52.6456C33.9445 53.3402 34.8208 53.8787 35.7765 54.2296C37.0542 54.7511 38.4185 55.0256 39.7977 55.0393C41.5205 55.0531 43.2073 54.5443 44.6369 53.579C47.2918 51.7837 48.8362 48.5381 48.8724 44.6739C48.9048 41.301 47.5947 38.5189 45.2752 37.0415ZM43.3541 45.5566C43.2984 48.2287 42.0117 49.6789 39.7427 49.6301C39.206 49.635 38.6737 49.5329 38.1766 49.3299C37.6795 49.1268 37.2278 48.8269 36.8471 48.4472C36.6142 48.2111 36.4317 47.9294 36.3115 47.6199C36.1912 47.3103 36.1356 46.9794 36.1477 46.6474C36.2524 45.5112 36.7651 44.452 37.5904 43.6675C38.4157 42.8829 39.4971 42.4265 40.633 42.3833H40.7032C41.4418 42.3106 42.1791 42.5333 42.7552 43.0028C43.1917 43.4604 43.3819 44.2714 43.3541 45.5578V45.5566Z" fill="black"/>
</g>
<defs>
<clipPath id="clip0">
<rect width="158" height="156" fill="white" transform="translate(0.777344)"/>
</clipPath>
</defs>
</svg>

<svg xmlns="http://www.w3.org/2000/svg" width="159" height="156" fill="none" viewBox="0 0 159 156"><g fill="#000" clip-path="url(#a)"><path d="M151.667 72.712c-1.481-.046-2.945.698-4.358 2.244-5.107 5.585-11.957 7.95-20.936 7.228-7.641-.615-13.075-3.432-16.607-8.615a12.14 12.14 0 0 1-1.683-9.802 8.97 8.97 0 0 1 4.629-5.976.67.67 0 0 0 .365-.715c-.87-5.02-2.064-6.045-6.741-5.824-.36.018-.72.065-1.078.109-.304.038-.608.077-.912.095-6.75.404-15.56.425-23.868-3.048-8.569-3.58-12.665-9.714-12.524-18.749.028-2.51.31-5.012.842-7.465a43.5 43.5 0 0 1 7.948-16.705l.081-.11c.933-1.247 1.62-2.268 1.268-3.106A3.98 3.98 0 0 0 74.98.233q-.61-.016-1.227-.042c-2.525-.096-5.133-.195-7.545.474C39.562 8.07 21.533 22.525 11.09 44.852 2.27 63.706-.595 79.838 2.069 95.624c4.149 24.585 17.255 41.791 38.954 51.143 13.738 5.921 27.5 8.895 41.088 8.895 5.188 0 10.368-.435 15.484-1.304 20.153-3.418 36.011-12.701 47.133-27.593 8.901-11.92 13.305-26.725 13.461-45.26.02-2.29-1.295-4.791-2.525-6.37-1.219-1.555-2.562-2.368-3.997-2.423M78.366 56.867c5.691 2.21 12.038 3.375 19.404 3.565 1.043.026 2.085.02 3.187.013l.825-.005-.023.11c-.1.497-.178.89-.284 1.267-2.61 9.274.114 17.374 7.666 22.807 10.31 7.416 22.211 8.698 35.37 3.81.625-.231 1.224-.508 1.917-.83.073-.034.148-.065.223-.104a56.7 56.7 0 0 1-2.566 15.918c-6.328 21.077-21.458 34.619-44.97 40.251-18.225 4.364-37.202 2.287-56.4-6.175-17.276-7.612-28.008-21.738-31.898-41.985a60.6 60.6 0 0 1 .682-25.857c4.98-20.563 12.4-34.208 24.058-44.24 10.14-8.727 20.582-14.644 31.92-18.087a6 6 0 0 1 .283-.076 42.06 42.06 0 0 0-7.441 20.099C58.936 41.12 65.514 51.88 78.362 56.867z"/><path d="M89.71 131.093h.115c6.817 0 12.224-6.058 12.331-13.846.069-5.11-5.9-11.188-11.207-11.409-3.048-.14-6.39 1.317-9.164 3.965-2.923 2.788-4.687 6.447-4.719 9.787-.062 6.38 5.495 11.431 12.645 11.503m-3.771-12.551c.068-2.32 2.96-5.481 4.555-5.481h.006c.812.144 1.54.587 2.044 1.242a4.54 4.54 0 0 1 1.354 2.975c-.228 2.709-2.054 4.66-4.246 4.55-2.346-.122-3.769-1.383-3.713-3.286m-32.658-34.92c-.023 3.303.97 6.063 2.879 7.984 1.939 1.955 4.765 2.986 8.176 2.986h.047c3.547-.01 6.552-1.165 8.691-3.342 2.363-2.405 3.588-5.942 3.542-10.23-.065-6.253-5.382-10.25-13.525-10.172-5.817.052-9.76 5.186-9.81 12.774m7.534-.01c-.033-2.305.518-4.297 1.439-5.2a1.5 1.5 0 0 1 1.056-.483h.05c2.956.114 5.401 2.007 5.452 4.221.072 3.106-1.544 5.09-4.219 5.177-1.348.048-2.29-.204-2.868-.758-.591-.567-.89-1.534-.91-2.957m-24.61 8.856a11.4 11.4 0 0 0-4.44.822 11.4 11.4 0 0 0-3.775 2.482 9.08 9.08 0 0 0-2.777 6.45c.027 4.811 2.896 7.68 7.673 7.68h.006c6.166 0 10.655-4.027 10.676-9.566.014-4.376-3.22-7.832-7.363-7.868m-5.713 9.208c.027-.416.216-.804.526-1.082.734-.734 2.395-1.504 4.885-1.523.07.065.148.14.23.215.398.363 1 .91 1.067 1.391a1.88 1.88 0 0 1-.518 1.506 5.67 5.67 0 0 1-4.05 1.668 2.28 2.28 0 0 1-1.614-.474 2.34 2.34 0 0 1-.526-1.701m14.782-64.634c-2.31-1.471-5.352-1.485-8.347-.036-3.033 1.468-4.063 4.13-5.057 6.705q-.2.524-.409 1.04a6.94 6.94 0 0 0-.031 5.433 7.7 7.7 0 0 0 1.767 2.462 7.7 7.7 0 0 0 2.578 1.584c1.278.521 2.642.796 4.022.81a8.53 8.53 0 0 0 4.839-1.461c2.655-1.795 4.2-5.04 4.235-8.905.033-3.373-1.277-6.155-3.597-7.632m-1.92 8.515c-.057 2.672-1.343 4.122-3.612 4.073a4.05 4.05 0 0 1-2.896-1.183 2.43 2.43 0 0 1-.7-1.8 4.7 4.7 0 0 1 1.443-2.98 4.67 4.67 0 0 1 3.043-1.284h.07a2.8 2.8 0 0 1 2.052.62c.437.457.627 1.268.6 2.555z"/></g><defs><clipPath id="a"><path fill="#fff" d="M.777 0h158v156h-158z"/></clipPath></defs></svg>
